usr/share/icons/biglinux-icons-material-dark/16/actions/labplot-editbreaklayout.svg

<svg xmlns="http://www.w3.org/2000/svg" viewBox="0 0 16 16">
  <defs id="defs3051">
    <style type="text/css" id="current-color-scheme">
      .ColorScheme-Text {
        color:#dedede;
      }
      </style>
  </defs>
    <path
       style="fill:currentColor;fill-opacity:1;stroke:none" 
       d="M 2 2 L 2 14 L 8 14 L 8 13.185547 L 8 13 L 8 8 L 13 8 L 14 8 L 14 2 L 2 2 z M 13 8 L 12 9 L 11 10 L 9 12 L 9 13 L 9 14 L 11 14 L 11.59375 13.40625 L 12 13 L 13 12 L 14 11 L 15 10 L 13 8 z M 3 3 L 7 3 L 7 7 L 3 7 L 3 3 z M 8 3 L 13 3 L 13 7 L 8 7 L 8 3 z M 3 8 L 7 8 L 7 13 L 3 13 L 3 8 z M 12.689453 9.6894531 L 13.28125 10.28125 L 13 10.5625 L 11.59375 11.96875 L 11.59375 11.984375 L 10.3125 13.28125 L 9.71875 12.6875 L 12.689453 9.6894531 z "
        class="ColorScheme-Text" />
</svg>

<svg xmlns="http://www.w3.org/2000/svg" viewBox="0 0 16 16">
<defs id="defs3051">
<style id="current-color-scheme" type="text/css">
.ColorScheme-Text{color:#dedede}
</style>
</defs>
<path d="M2 2v12h6V8h6V2zm11 6-1 1-1 1-2 2v2h2l.594-.594L12 13l1-1 1-1 1-1zM3 3h4v4H3zm5 0h5v4H8zM3 8h4v5H3zm9.69 1.69.591.591-.281.281-1.406 1.407v.015l-1.281 1.297-.594-.594z" class="ColorScheme-Text" style="fill:currentColor;fill-opacity:1;stroke:none"/>
</svg>
